packages/icons/src/svg/crosshairs.svg

<svg xmlns="http://www.w3.org/2000/svg" viewBox="0 0 16 16">
  <path d="M16,6.99994H13.91a5.99542,5.99542,0,0,0-4.91-4.91v-2.09H6.99994V2.09a5.99542,5.99542,0,0,0-4.91,4.91H0V9.00006H2.09a5.99542,5.99542,0,0,0,4.91,4.91v2.0899H9.00006V13.91a5.99542,5.99542,0,0,0,4.91-4.91H16Zm-6.99994,5.3797v-1.3797H6.99994v1.37378c-.12958-.02875-.261-.0531-.38593-.09357l-.0174-.00635a4.46277,4.46277,0,0,1-.5993-.24835l-.0329-.01587a4.51257,4.51257,0,0,1-1.974-1.974l-.01587-.0329a4.46277,4.46277,0,0,1-.24835-.5993L3.71985,9.386c-.04047-.12494-.06482-.25635-.09357-.38593H5V6.99994H3.62036A4.49482,4.49482,0,0,1,6.99994,3.62036V4.99994H9.00006V3.62628c.12958.02875.261.0531.38593.09351l.0174.00641a4.46277,4.46277,0,0,1,.5993.24835l.0329.01587a4.51257,4.51257,0,0,1,1.974,1.974l.01587.0329a4.46277,4.46277,0,0,1,.24835.5993l.00641.0174c.04041.12494.06476.25635.09351.38593H11V9.00006h1.37964A4.49482,4.49482,0,0,1,9.00006,12.37964Z"/>
</svg>

<svg xmlns="http://www.w3.org/2000/svg" viewBox="0 0 16 16">
	<path d="M16 7h-2.09A5.995 5.995 0 0 0 9 2.09V0H7v2.09A5.995 5.995 0 0 0 2.09 7H0v2h2.09A5.995 5.995 0 0 0 7 13.91V16h2v-2.09A5.995 5.995 0 0 0 13.91 9H16zm-7 5.38V11H7v1.374c-.13-.029-.261-.053-.386-.094l-.017-.006a4.463 4.463 0 0 1-.6-.249l-.033-.015a4.513 4.513 0 0 1-1.974-1.974l-.015-.033a4.463 4.463 0 0 1-.249-.6l-.006-.017c-.04-.125-.065-.256-.094-.386H5V7H3.62A4.495 4.495 0 0 1 7 3.62V5h2V3.626c.13.029.261.053.386.094l.017.006a4.463 4.463 0 0 1 .6.249l.033.015a4.513 4.513 0 0 1 1.974 1.974l.015.033a4.463 4.463 0 0 1 .249.6l.006.017c.04.125.065.256.094.386H11v2h1.38A4.495 4.495 0 0 1 9 12.38z"/>
</svg>
